X:1
T:Bernard, 76.76 D
T:Bernard, 76.76 D
T:Joseph Perry Holbrook, 1867
T:Public Domain Courtesy of the Cyber Hymnal™
C:Joseph Perry Holbrook, 1867
Z:Public Domain
Z:Courtesy of the Cyber Hymnal™
%%score ( 1 2 ) ( 3 4 )
L:1/8
Q:1/4=108
M:4/4
K:A
V:1 treble 
V:2 treble 
V:3 bass 
V:4 bass 
V:1
 E2 | c3 B A2 F2 | E4 c2 [Ec]2 | [EB]3 [Ec] [Ee]2 [Ed]2 | [EB]6 E2 | c3 B A2 F2 | E4 A2 [EA]2 | %7
 [EG]2 [GB]2 [FB]3 [^DA] | [EG]6 E2 | [Ed]3 [Ec] [Ed]2 [Ee]2 | (c3 d) [Ee]2 [Ec]2 | %11
 [Ed]3 [Ec] [Ed]2 [Ee]2 | [Ec]6 [Ac]2 | [Ae]3 [Ac] [Ad]2 [Ae]2 | [Af]4 [Fd]2 [FB]2 | %15
 [Ac]3 [Ae] [GB]2 [GB]2 | [EA]6 |] %17
V:2
 E2 | c3 B A2 F2 | E4 c2 x2 | x8 | x6 E2 | c3 B A2 F2 | E4 A2 x2 | x8 | x6 E2 | x8 | E4 x4 | x8 | %12
 x8 | x8 | x8 | x8 | x6 |] %17
V:3
 E,2 | C3 B, A,2 F,2 | E,4 [A,,A,]2 [A,,A,]2 | [E,G,]3 [E,A,] [E,C]2 [E,B,]2 | [E,G,]6 E,2 | %5
 C3 B, A,2 F,2 | E,4 [A,,A,]2 [A,,C]2 | [B,,B,]2 [B,,E]2 [B,,^D]3 [B,,B,] | [E,B,]6 [E,B,]2 | %9
 [E,B,]3 [E,^A,] [E,B,]2 [E,C]2 | (A,3 B,) [A,,C]2 [A,,A,]2 | [E,B,]3 [E,^A,] [E,B,]2 [E,C]2 | %12
 [A,,A,]6 [A,C]2 | [A,C]3 [G,E] [F,D]2 [E,C]2 | [D,D]4 [D,A,]2 [D,B,]2 | %15
 [E,A,]3 [E,C] [E,E]2 [E,D]2 | [A,,C]6 |] %17
V:4
 E,2 | C3 B, A,2 F,2 | E,4 x4 | x8 | x6 E,2 | C3 B, A,2 F,2 | E,4 x4 | x8 | x8 | x8 | A,,4 x4 | %11
 x8 | x8 | x8 | x8 | x8 | x6 |] %17

